images/ic_cross.svg

<svg width="26" height="26" viewBox="0 0 26 26" fill="none" xmlns="http://www.w3.org/2000/svg">
<path d="M14.7568 12.9997L21.6384 6.1205C22.1205 5.63587 22.1205 4.84802 21.6384 4.36347C21.1538 3.87884 20.3635 3.87884 19.8814 4.36347L12.9998 11.2426L6.1205 4.36347C5.63587 3.87884 4.84802 3.87884 4.36347 4.36347C3.87892 4.8481 3.87884 5.63595 4.36347 6.1205L11.2426 12.9997L4.36347 19.8813C3.87884 20.3634 3.87884 21.1538 4.36347 21.6383C4.8481 22.1204 5.63595 22.1204 6.1205 21.6383L12.9997 14.7567L19.8813 21.6383C20.3634 22.1204 21.1538 22.1204 21.6383 21.6383C22.1204 21.1537 22.1204 20.3634 21.6383 19.8813L14.7568 12.9997Z" fill="#010002"/>
</svg>

<svg xmlns="http://www.w3.org/2000/svg" fill="none" viewBox="0 0 26 26"><path d="M14.757 13l6.882-6.88a1.25 1.25 0 0 0 0-1.757c-.485-.485-1.275-.485-1.757 0L13 11.243l-6.88-6.88c-.485-.485-1.272-.485-1.757 0s-.485 1.273 0 1.757l6.88 6.88-6.88 6.882c-.485.482-.485 1.273 0 1.757a1.25 1.25 0 0 0 1.757 0L13 14.757l6.882 6.882a1.25 1.25 0 0 0 1.757 0 1.25 1.25 0 0 0 0-1.757L14.757 13z" fill="#010002"/></svg>
